X:1
T:The Lintie  "1998.3"
M:C
L:1/8
Q:80
C:Donald MacLeod
S:Reel
K:HP
[| {g}e3/2A/2{gAGAG}A2{g}A3/2{d}A/2{e}A3/2{d}c/2 | \
{g}e3/2f/2{g}e3/2c/2{g}f3/2e/2{g}c/2e3/2 | \
{g}f3/2B/2{gBeBG}B2{g}B3/2{d}B/2{e}B3/2{d}c/2 |
{g}B3/2f/2{e}f3/2e/2{g}f2a3/2f/2 | \
{g}e3/2A/2{gAGAG}A2{g}A3/2{d}A/2{e}A3/2{d}c/2 | \
{g}e3/2f/2{g}e3/2c/2{g}f3/2e/2{g}c/2e3/2 |
{g}f3/2a/2{g}a3/2f/2{g}e3/2c/2a3/2A/2 | \
{g}B3/2{d}c/2{g}e3/2f/2{g}A2{g}c3/2d/2|]
{gef}e2{A}e3/2f/2{g}e3/2c/2{G}c3/2e/2 |
{g}A3/2{d}c/2{gef}e3/2A/2{d}c/2e3/2{g}A3/2{d}c/2 | \
{g}f2{e}f3/2a/2f3/2B/2{G}B3/2{d}c/2 | \
{g}B3/2d/2{g}f3/2B/2{g}d3/2f/2a3/2f/2 |
{gef}e2{A}e3/2f/2{g}e3/2c/2{G}c3/2e/2 | \
{g}A3/2{d}c/2{gef}e3/2A/2{d}c/2e3/2{g}A3/2{d}c/2 | \
{g}f3/2a/2{g}a3/2f/2{g}e3/2c/2a3/2A/2 |
{g}B3/2{d}c/2{g}e3/2f/2{g}A2-A2|]
